images/ic_ambulance.svg

<svg width="20" height="20" viewBox="0 0 20 20" fill="none" xmlns="http://www.w3.org/2000/svg">
<g clip-path="url(#clip0)">
<path d="M18.446 10.7196L17.5026 10.1707L14.8381 5.58563C14.3451 4.62143 13.369 4.02344 12.2841 4.02344H11.6663L11.5065 2.74567C11.3748 1.6925 10.4753 0.898438 9.41406 0.898438C8.35281 0.898438 7.45331 1.6925 7.32162 2.74551L7.16187 4.02344H3.125C1.40182 4.02344 0 5.42526 0 7.14844V14.375C0 16.0776 1.36871 17.4655 3.06351 17.4985C3.38562 18.4085 4.25446 19.0625 5.27344 19.0625C6.29196 19.0625 7.16034 18.4093 7.48276 17.5H9.88281C10.3143 17.5 10.6641 17.1503 10.6641 16.7188C10.6641 16.2872 10.3143 15.9375 9.88281 15.9375H7.48276C7.16034 15.0282 6.29196 14.375 5.27344 14.375C4.25552 14.375 3.3876 15.0275 3.06458 15.936C2.23099 15.9041 1.5625 15.2164 1.5625 14.375V7.14844C1.5625 6.28693 2.26349 5.58594 3.125 5.58594H10.974C10.9744 5.58594 10.975 5.58609 10.9756 5.58609C10.9764 5.58609 10.9772 5.58594 10.9781 5.58594H12.2841C12.7821 5.58594 13.2297 5.86258 13.4525 6.30798C13.4598 6.32263 13.4674 6.33698 13.4756 6.35117L15.7095 10.1953H11.7578V7.92969C11.7578 7.49817 11.4081 7.14844 10.9766 7.14844C10.545 7.14844 10.1953 7.49817 10.1953 7.92969V10.9766C10.1953 11.4081 10.545 11.7578 10.9766 11.7578H17.0703C17.0868 11.7578 17.1028 11.7564 17.1191 11.7554L17.6605 12.0702C18.1398 12.3489 18.4375 12.8665 18.4375 13.4209V14.375C18.4375 15.2365 17.7365 15.9375 16.875 15.9375H16.7406C16.4182 15.0282 15.5498 14.375 14.5312 14.375C13.2388 14.375 12.1875 15.4263 12.1875 16.7188C12.1875 18.0112 13.2388 19.0625 14.5312 19.0625C15.5498 19.0625 16.4182 18.4093 16.7406 17.5H16.875C18.5982 17.5 20 16.0982 20 14.375V13.4209C20 12.3122 19.4046 11.277 18.446 10.7196ZM5.27344 15.9375C5.70419 15.9375 6.05469 16.288 6.05469 16.7188C6.05469 17.1495 5.70419 17.5 5.27344 17.5C4.84268 17.5 4.49219 17.1495 4.49219 16.7188C4.49219 16.288 4.84268 15.9375 5.27344 15.9375ZM8.87207 2.9393C8.9061 2.66663 9.13925 2.46094 9.41406 2.46094C9.68887 2.46094 9.92203 2.66663 9.95605 2.93945L10.0916 4.02344H8.73657L8.87207 2.9393ZM14.5312 17.5C14.1005 17.5 13.75 17.1495 13.75 16.7188C13.75 16.288 14.1005 15.9375 14.5312 15.9375C14.962 15.9375 15.3125 16.288 15.3125 16.7188C15.3125 17.1495 14.962 17.5 14.5312 17.5ZM5.07812 11.7969V10.625H3.90625C3.47473 10.625 3.125 10.2753 3.125 9.84375C3.125 9.41223 3.47473 9.0625 3.90625 9.0625H5.07812V7.89062C5.07812 7.45911 5.42786 7.10938 5.85938 7.10938C6.29089 7.10938 6.64062 7.45911 6.64062 7.89062V9.0625H7.8125C8.24402 9.0625 8.59375 9.41223 8.59375 9.84375C8.59375 10.2753 8.24402 10.625 7.8125 10.625H6.64062V11.7969C6.64062 12.2284 6.29089 12.5781 5.85938 12.5781C5.42786 12.5781 5.07812 12.2284 5.07812 11.7969Z" fill="#3D3D3D"/>
</g>
<defs>
<clipPath id="clip0">
<rect width="20" height="20" fill="white"/>
</clipPath>
</defs>
</svg>

<svg xmlns="http://www.w3.org/2000/svg" fill="none" viewBox="0 0 20 20"><g clip-path="url(#A)"><path d="M18.446 10.72l-.943-.55-2.665-4.585c-.493-.964-1.47-1.562-2.554-1.562h-.618l-.16-1.278C11.375 1.693 10.475.9 9.414.9s-1.96.794-2.092 1.847l-.16 1.278H3.125A3.13 3.13 0 0 0 0 7.149v7.227a3.13 3.13 0 0 0 3.064 3.123c.322.9 1.19 1.564 2.2 1.564S7.16 18.4 7.483 17.5h2.4a.78.78 0 1 0 0-1.562h-2.4c-.322-.91-1.19-1.562-2.21-1.562s-1.886.652-2.21 1.56c-.834-.032-1.502-.72-1.502-1.56V7.15c0-.862.7-1.562 1.563-1.562h9.16a1.3 1.3 0 0 1 1.168.722l.023.043 2.234 3.844h-3.952V7.93a.78.78 0 1 0-1.562 0v3.047a.78.78 0 0 0 .781.781l6.143-.002.54.315a1.57 1.57 0 0 1 .777 1.351v.954c0 .86-.7 1.563-1.562 1.563h-.134c-.322-.91-1.19-1.562-2.21-1.562-1.292 0-2.344 1.05-2.344 2.344s1.05 2.344 2.344 2.344c1.02 0 1.887-.653 2.21-1.562h.134A3.13 3.13 0 0 0 20 14.375v-.954c0-1.11-.595-2.144-1.554-2.7zM5.273 15.938a.78.78 0 1 1 0 1.562.78.78 0 1 1 0-1.562zm3.6-12.998c.034-.273.267-.478.542-.478s.508.206.542.48l.136 1.084H8.736l.136-1.084zm5.66 14.56a.78.78 0 1 1 0-1.563.78.78 0 1 1 0 1.563zm-9.453-5.703v-1.172H3.906a.78.78 0 1 1 0-1.562h1.172V7.892a.78.78 0 1 1 1.563 0v1.172h1.172a.78.78 0 1 1 0 1.563H6.64v1.172a.78.78 0 1 1-1.562 0z" fill="#3d3d3d"/></g><defs><clipPath id="A"><path fill="#fff" d="M0 0h20v20H0z"/></clipPath></defs></svg>
